X: 36817
T: Shetland Two Step, The
R: jig
M: 6/8
K: Amajor
E3|:"A"A3 E2 A|c3 A2 c|e^de fec|e3 edc|
"Bm"B3 F2 B|d3 B3|"E"b2 a g2 f|"E7"efe dcB|
"A"A3 E2 A|c3 A2 c|"F#m"e^de fec|e3 edc|
"Bm7"B2 c d2 e|f2 a g2 f|"E7"efe dcB||1 "A"Afe "E7"dcB:|2 "A"A3 "A7"A3||[K:D]
|:"D"DFA d2 e|f2 d A2 F|DFA def|"Em"g2 e B3|
"A"ccc c2 d|e2 ^d e2 f|"Em7"gfe dcB|"A7"ABA GFE|
"D"DFA d2 e|f2 d A2 F|"Bm7"DFA def|"Em"g2 e B3|
"A"ccc c2 d|e2 ^d e2 f|"A7"g ec ABc||1 "D"d3 d2 A:|2 "D"d3 D3||
K:A
"A"A3 E2 A|c3 A2 c|e^de fec|e3 edc|
"Bm"B3 F2 B|d3 B3|"E"b3/2a3/2 g3/2f3/2|"E7"e3/2d3/2 c3/2B3/2|
"A"A3 E2 A|c3 A2 c|e^de fec|e3 edc|
"Bm7"B2 c d2 e|f2 a g2 f|"E"efe dcB|"A"A3 "F#7"^A3||
K:G
|:"G"B3 G3|D3 B,3|G,B,D GAB|"Am"c2 A E3|
c3 A3|E3 C3|"A7"A,^CE A2 G|"D"FAF D2 ^A|
"G"BdB GBG|DGD B,DB,|G,B,D GAB|"Am"c2 A E3|
"D"FFF F2 G|A2 ^G A2 B|"D7"cAF DEF||1 "G"G3 "[-]"^A3:|2 "G"G3||

